X:1330
T:Denny Mescall's
M:12/8
O:Ireland
R:Slide
Z:Richard Robinson 
%%TUNEURL: http://www.leeds.ac.uk/music/Info/RRTuneBk/gettune/00000950.html
%%ID:00000950
K:G
A|\
B2B BAB d2B G2A | B2d g2e d2B A2c | \
B2B BAB d2B G2A | Bcd cBA (G3 G2) :|
|: d |\
g2g gfe d2B c2d | e2a a2b a2g e2f |\
g2g gfe d2B c2d | e2d e2f (g3 g2) :|
